docs/.gitbook/assets/icon-wifi-16@light.svg

<svg width="32" height="32" viewBox="0 0 16 16" fill="none" xmlns="http://www.w3.org/2000/svg">
<rect x="0" y="0" width="16" height="16" fill="#fff"/>
<path fill-rule="evenodd" clip-rule="evenodd" d="M2.30667 6.75262C2.3068 6.75247 2.30694 6.75232 2.30707 6.75218L2.30694 6.75235L2.30671 6.75257L2.30667 6.75262ZM2.30575 6.75364L2.30694 6.75235L2.3191 6.73944C2.33142 6.72651 2.35211 6.70519 2.38105 6.67666C2.43897 6.61955 2.52969 6.5338 2.65216 6.42882C2.89746 6.21856 3.2679 5.93314 3.75527 5.64645C4.72918 5.07357 6.1616 4.5 8.00001 4.5C9.83842 4.5 11.2708 5.07357 12.2447 5.64645C12.7321 5.93314 13.1026 6.21856 13.3479 6.42882C13.4703 6.5338 13.561 6.61955 13.619 6.67666C13.6479 6.70519 13.6686 6.72651 13.6809 6.73944L13.6931 6.75235L13.6933 6.75257L13.6934 6.75269L13.6942 6.75358C13.9715 7.0597 14.4445 7.08401 14.7517 6.80747C15.0596 6.53038 15.0846 6.05616 14.8075 5.74828L14.25 6.25C14.8075 5.74828 14.8073 5.74803 14.807 5.74777L14.8065 5.7472L14.8053 5.74589L14.8023 5.74259L14.7938 5.73331C14.787 5.72595 14.7779 5.71626 14.7666 5.70441C14.744 5.68071 14.7125 5.64832 14.6721 5.6085C14.5913 5.52889 14.475 5.41933 14.324 5.28993C14.0225 5.03144 13.5804 4.69186 13.0053 4.35355C11.8542 3.67643 10.1616 3 8.00001 3C5.83842 3 4.14584 3.67643 2.99474 4.35355C2.41961 4.69186 1.97755 5.03144 1.67598 5.28993C1.52501 5.41933 1.40869 5.52889 1.32794 5.6085C1.28755 5.64832 1.256 5.68071 1.23341 5.70441C1.22211 5.71626 1.21304 5.72595 1.20623 5.73331L1.19769 5.74259L1.19469 5.74589L1.19351 5.7472L1.193 5.74777C1.19276 5.74803 1.19254 5.74828 1.75001 6.25L1.19254 5.74828C0.915442 6.05616 0.9404 6.53038 1.24828 6.80747C1.55553 7.08399 2.02841 7.05971 2.30575 6.75364ZM2.30575 6.75364L2.30561 6.75378L2.30614 6.7532L2.30667 6.75262C2.30636 6.75296 2.30606 6.7533 2.30575 6.75364ZM5.32386 9.7329C5.05825 10.0486 4.58714 10.0906 4.26986 9.82616C3.95165 9.56098 3.90867 9.08805 4.17385 8.76985L4.75001 9.25C4.17385 8.76985 4.17404 8.76962 4.17423 8.76939L4.17465 8.7689L4.17556 8.7678L4.17776 8.76519L4.18357 8.75835L4.20089 8.73838C4.21494 8.72237 4.23403 8.70105 4.25804 8.6752C4.30601 8.62354 4.3739 8.55345 4.46077 8.47115C4.63397 8.30708 4.88584 8.0914 5.20901 7.87596C5.85241 7.44703 6.8082 7 8.00003 7C9.19186 7 10.1476 7.44703 10.791 7.87596C11.1142 8.0914 11.3661 8.30709 11.5393 8.47116C11.6261 8.55346 11.694 8.62355 11.742 8.67521C11.766 8.70106 11.7851 8.72238 11.7991 8.73839L11.8165 8.75836L11.8223 8.7652L11.8245 8.76781L11.8254 8.76891L11.8258 8.7694C11.826 8.76963 11.8262 8.76986 11.25 9.25L11.8262 8.76986C12.0913 9.08807 12.0484 9.56099 11.7301 9.82617C11.4129 10.0906 10.9417 10.0486 10.6761 9.73289L10.6759 9.73262L10.6718 9.72792C10.6666 9.72196 10.6569 9.71105 10.6428 9.69588C10.6146 9.66551 10.5692 9.61841 10.5076 9.56009C10.3839 9.44291 10.1983 9.2836 9.95898 9.12404C9.47738 8.80297 8.80818 8.5 8.00003 8.5C7.19188 8.5 6.52266 8.80297 6.04105 9.12404C5.8017 9.2836 5.61607 9.44292 5.49238 9.5601C5.43081 9.61842 5.38542 9.66552 5.35721 9.69589C5.34313 9.71105 5.33341 9.72197 5.32818 9.72793L5.32386 9.7329ZM7.00001 12C7.00001 11.4477 7.44772 11 8.00001 11C8.55229 11 9.00001 11.4477 9.00001 12C9.00001 12.5523 8.55229 13 8.00001 13C7.44772 13 7.00001 12.5523 7.00001 12Z" fill="#000"/>
</svg>

<svg xmlns="http://www.w3.org/2000/svg" width="32" height="32" fill="none" viewBox="0 0 16 16"><path fill="#fff" d="M0 0h16v16H0z"/><path fill="#000" fill-rule="evenodd" d="m2.306 6.753.013-.014.062-.062c.058-.057.149-.143.271-.248a7.7 7.7 0 0 1 1.103-.783A8.3 8.3 0 0 1 8 4.5a8.33 8.33 0 0 1 4.245 1.146 7.7 7.7 0 0 1 1.103.783 5 5 0 0 1 .333.31l.012.013.001.002a.75.75 0 0 0 1.113-1.006l-.557.502.557-.502-.002-.002-.003-.003-.008-.01a3 3 0 0 0-.122-.124 7 7 0 0 0-.348-.32 9 9 0 0 0-1.319-.935A9.8 9.8 0 0 0 8 3a9.8 9.8 0 0 0-5.005 1.354 9 9 0 0 0-1.319.936 7 7 0 0 0-.47.443l-.008.01-.003.003-.001.001h-.001l.557.503-.557-.502a.75.75 0 0 0 1.113 1.006m3.018 2.98a.75.75 0 0 1-1.15-.963l.576.48-.576-.48V8.77l.002-.001.002-.003.006-.007.017-.02.057-.063a5.7 5.7 0 0 1 .951-.8c.643-.428 1.6-.875 2.791-.875 1.192 0 2.148.447 2.791.876a5.7 5.7 0 0 1 .951.8l.057.062.018.02.005.007.003.003v.001l-.575.481.576-.48a.75.75 0 0 1-1.15.963l-.004-.005-.03-.032a4 4 0 0 0-.684-.572c-.48-.321-1.15-.624-1.958-.624s-1.477.303-1.959.624a4 4 0 0 0-.684.572l-.029.032zM7 12a1 1 0 1 1 2 0 1 1 0 0 1-2 0" clip-rule="evenodd"/></svg>
